icons/hand-palm.svg

<svg width="24" height="24" viewBox="0 0 24 24" fill="none" xmlns="http://www.w3.org/2000/svg">
<path d="M16 12.7407V10.8888C16 10.3977 16.2107 9.92663 16.5858 9.57934C16.9609 9.23205 17.4696 9.03695 18 9.03695C18.5304 9.03695 19.0391 9.23205 19.4142 9.57934C19.7893 9.92663 20 10.3977 20 10.8888V14.5925C20 16.5571 19.1571 18.4412 17.6569 19.8303C16.1566 21.2195 14.1217 21.9999 12 21.9999C9.87827 21.9999 7.84344 21.2195 6.34315 19.8303C4.84285 18.4412 4 16.5571 4 14.5925V7.55547C4 7.06432 4.21071 6.5933 4.58579 6.24601C4.96086 5.89872 5.46957 5.70361 6 5.70361C6.53043 5.70361 7.03914 5.89872 7.41421 6.24601C7.78929 6.5933 8 7.06432 8 7.55547V10.8888" stroke="#1E293B" stroke-width="2" stroke-linecap="round" stroke-linejoin="round"/>
<path d="M16 12.7407C14.9391 12.7407 13.9217 13.1309 13.1716 13.8255C12.4214 14.5201 12 15.4621 12 16.4444" stroke="#1E293B" stroke-width="2" stroke-linecap="round" stroke-linejoin="round"/>
<path d="M12 10.1481V5.3333C12 4.84216 12.2107 4.37113 12.5858 4.02384C12.9609 3.67655 13.4696 3.48145 14 3.48145C14.5304 3.48145 15.0391 3.67655 15.4142 4.02384C15.7893 4.37113 16 4.84216 16 5.3333V12.7407" stroke="#1E293B" stroke-width="2" stroke-linecap="round" stroke-linejoin="round"/>
<path d="M12 10.1481V3.85185C12 3.36071 11.7893 2.88968 11.4142 2.54239C11.0391 2.19511 10.5304 2 10 2C9.46957 2 8.96086 2.19511 8.58579 2.54239C8.21071 2.88968 8 3.36071 8 3.85185V10.8889" stroke="#1E293B" stroke-width="2" stroke-linecap="round" stroke-linejoin="round"/>
</svg>

<svg
  width="24"
  height="24"
  viewBox="0 0 24 24"
  xmlns="http://www.w3.org/2000/svg"
  fill="none"
  stroke="currentColor"
  stroke-width="2"
  stroke-linecap="round"
  stroke-linejoin="round"
>
  <path d="M16 12.74V10.89c0-.491.21-.962.586-1.31A2.084 2.084 0 0 1 18 9.037c.53 0 1.04.195 1.414.542.375.348.586.819.586 1.31v3.704c0 1.964-.843 3.848-2.343 5.237C16.157 21.22 14.122 22 12 22s-4.157-.78-5.657-2.17C4.843 18.441 4 16.557 4 14.593V7.554c0-.49.21-.962.586-1.309A2.084 2.084 0 0 1 6 5.704c.53 0 1.04.195 1.414.542.375.347.586.818.586 1.31v3.333" />
  <path d="M16 12.74c-1.06 0-2.078.39-2.828 1.085S12 15.463 12 16.445" />
  <path d="M12 10.148V5.333c0-.49.21-.962.586-1.31A2.084 2.084 0 0 1 14 3.482c.53 0 1.04.196 1.414.543.375.347.586.818.586 1.31v7.407" />
  <path d="M12 10.148V3.852c0-.491-.21-.962-.586-1.31A2.084 2.084 0 0 0 10 2c-.53 0-1.04.195-1.414.542A1.785 1.785 0 0 0 8 3.852v7.037" />
</svg>
